X:4242
M:4/4
L:1/8
Q:1/4=120
K:Ab
V:1
z2z2z2F_A|c2c2c2c2|=d4_d2_B^c|=e2=e2=e2=e2|f4c4|z8|
V:2
z2z2z2zz|_A,C_A,C_A,C_A,C|=B,=D=B,=D_B,_D_B,_D|_B,_D_B,_D_B,_D_B,_D|F,_A,F,_A,C,F,_A,,C,|z8|
